svg/fluentui-system-icons/ic_fluent_balloon_16_filled.svg

<svg width="16" height="16" viewBox="0 0 16 16" fill="none" xmlns="http://www.w3.org/2000/svg">
<path d="M8 1C5.18379 1 3.5 3.2657 3.5 5.5C3.5 6.87027 4.04797 8.22784 4.85927 9.24395C5.55125 10.1106 6.48408 10.786 7.5 10.9576V11C7.5 12.1046 8.39543 13 9.5 13H11C11.5523 13 12 13.4477 12 14V14.5C12 14.7761 12.2239 15 12.5 15C12.7761 15 13 14.7761 13 14.5V14C13 12.8954 12.1046 12 11 12H9.5C8.94772 12 8.5 11.5523 8.5 11V10.9576C9.51592 10.786 10.4488 10.1106 11.1407 9.24395C11.952 8.22784 12.5 6.87027 12.5 5.5C12.5 3.2657 10.8162 1 8 1ZM8 3C8.66262 3 9.28338 3.32627 9.72855 3.77145C10.1737 4.21662 10.5 4.83738 10.5 5.5C10.5 5.77614 10.2761 6 10 6C9.72386 6 9.5 5.77614 9.5 5.5C9.5 5.16262 9.32627 4.78338 9.02145 4.47855C8.71662 4.17373 8.33738 4 8 4C7.72386 4 7.5 3.77614 7.5 3.5C7.5 3.22386 7.72386 3 8 3Z" fill="#212121"/>
</svg>

<svg xmlns="http://www.w3.org/2000/svg" width="16" height="16"><path d="M8 1C5.184 1 3.5 3.266 3.5 5.5c0 1.37.548 2.728 1.36 3.744.691.867 1.624 1.542 2.64 1.714V11a2 2 0 0 0 2 2H11a1 1 0 0 1 1 1v.5a.5.5 0 0 0 1 0V14a2 2 0 0 0-2-2H9.5a1 1 0 0 1-1-1v-.042c1.016-.172 1.949-.847 2.64-1.714.812-1.016 1.36-2.374 1.36-3.744C12.5 3.266 10.816 1 8 1Zm0 2c.663 0 1.283.326 1.729.771.445.446.771 1.066.771 1.729a.5.5 0 0 1-1 0c0-.337-.174-.717-.479-1.021C8.717 4.174 8.337 4 8 4a.5.5 0 0 1 0-1Z"/></svg>
